shot/img/map.svg

<svg width="12" height="16" viewBox="0 0 12 16" fill="none" xmlns="http://www.w3.org/2000/svg">
<g clip-path="url(#clip0_19_32)">
<path d="M11 4.49999C10.51 2.20999 9.09 0.76999 6.84 0.14999C6.57 0.0799902 6.29 0.0499902 6.02 -0.0100098H5.09C4.88 0.0199902 4.67 0.0499902 4.46 0.0899902C0.749996 0.85999 -1.15 5.00999 0.739996 8.28999C2.16 10.76 3.65 13.19 5.11 15.63C5.36 16.04 5.77 16.04 6.01 15.63C7.44 13.23 8.88 10.83 10.31 8.41999C11.04 7.19999 11.3 5.87999 11.01 4.48999L11 4.49999ZM5.56 8.24999C4.04 8.24999 2.81 7.02999 2.81 5.50999C2.81 3.98999 4.03 2.75999 5.56 2.76999C7.08 2.76999 8.3 3.99999 8.3 5.51999C8.3 7.03999 7.08 8.24999 5.56 8.25999V8.24999Z" fill="white"/>
</g>
<defs>
<clipPath id="clip0_19_32">
<rect width="11.12" height="15.95" fill="white"/>
</clipPath>
</defs>
</svg>

<svg width="12" height="16" fill="none" xmlns="http://www.w3.org/2000/svg"><g clip-path="url(#clip0_19_32)"><path d="M11 4.5C10.51 2.21 9.09.77 6.84.15c-.27-.07-.55-.1-.82-.16h-.93c-.21.03-.42.06-.63.1C.75.86-1.15 5.01.74 8.29c1.42 2.47 2.91 4.9 4.37 7.34.25.41.66.41.9 0 1.43-2.4 2.87-4.8 4.3-7.21.73-1.22.99-2.54.7-3.93L11 4.5zM5.56 8.25a2.74 2.74 0 01-2.75-2.74c0-1.52 1.22-2.75 2.75-2.74A2.74 2.74 0 018.3 5.52c0 1.52-1.22 2.73-2.74 2.74v-.01z" fill="#fff"/></g><defs><clipPath id="clip0_19_32"><path fill="#fff" d="M0 0h11.12v15.95H0z"/></clipPath></defs></svg>
